resources/icons/16px/output.svg

<svg width="16" height="16" viewBox="0 0 16 16" fill="none" xmlns="http://www.w3.org/2000/svg">
<path d="M8 16C3.59 16 0 12.4178 0 7.995C0 3.57223 3.59 0 8 0C8.94 0 9.86 0.1601 10.74 0.4803C11.26 0.670419 11.53 1.24078 11.34 1.7611C11.15 2.28143 10.58 2.55159 10.06 2.36148C9.4 2.12133 8.71 2.00125 8.01 2.00125C4.7 2.00125 2.01 4.69293 2.01 8.005C2.01 11.3171 4.7 14.0088 8.01 14.0088C8.71 14.0088 9.4 13.8887 10.06 13.6485C10.58 13.4584 11.15 13.7286 11.34 14.2489C11.53 14.7692 11.26 15.3396 10.74 15.5297C9.86 15.8499 8.94 16 8 16Z" fill="#111418"/>
<path d="M15.71 7.29456C15.89 7.47467 16 7.72483 16 8.005C16 8.28518 15.89 8.53533 15.71 8.71545L12.71 11.7173C12.53 11.8974 12.28 12.0075 12 12.0075C11.45 12.0075 11 11.5572 11 11.0069C11 10.7267 11.11 10.4765 11.3 10.2964L12.59 9.00563H5C4.45 9.00563 4 8.55535 4 8.005C4 7.45466 4.45 7.00438 5 7.00438H12.59L11.29 5.71357C11.11 5.53346 11 5.2833 11 5.00313C11 4.45278 11.45 4.0025 12 4.0025C12.28 4.0025 12.53 4.11257 12.71 4.29268L15.71 7.29456Z" fill="#111418"/>
</svg>

<svg xmlns="http://www.w3.org/2000/svg" viewBox="0 0 16 16">
  <path d="M8 16c-4.41 0-8-3.582-8-8.005S3.59 0 8 0c.94 0 1.86.16 2.74.48.52.19.79.76.6 1.281s-.76.79-1.28.6a6.007 6.007 0 0 0-8.05 5.644 6.007 6.007 0 0 0 8.05 5.643.997.997 0 0 1 1.28.6 1 1 0 0 1-.6 1.282c-.88.32-1.8.47-2.74.47"/>
  <path d="M15.71 7.295c.18.18.29.43.29.71s-.11.53-.29.71l-3 3.002a1.003 1.003 0 0 1-1.71-.71c0-.28.11-.53.3-.71l1.29-1.291H5c-.55 0-1-.45-1-1.001s.45-1 1-1h7.59l-1.3-1.291a1.003 1.003 0 0 1 1.42-1.42z"/>
</svg>
